app/assets/images/icons/active/family.svg

<?xml version="1.0" encoding="UTF-8" standalone="no"?>
<svg width="32px" height="232px" viewBox="0 0 32 232" version="1.1" xmlns="http://www.w3.org/2000/svg" xmlns:xlink="http://www.w3.org/1999/xlink" xmlns:sketch="http://www.bohemiancoding.com/sketch/ns">
    <title>family</title>
    <description>Created with Sketch (http://www.bohemiancoding.com/sketch)</description>
    <defs></defs>
    <g id="Hotel-facilities" stroke="none" stroke-width="1" fill="none" fill-rule="evenodd" sketch:type="MSPage">
        <path d="M20.9819304,127.616154 C22.5008374,127.616154 23.7362715,126.357231 23.7362715,124.808615 C23.7362715,123.261077 22.5008374,122 20.9819304,122 C19.4577347,122 18.2223006,123.261077 18.2223006,124.808615 C18.2223006,126.357231 19.4577347,127.616154 20.9819304,127.616154 M24.6490965,128.260154 L17.5591009,128.260154 C15.968268,128.260154 14.2325253,129.831385 14.2325253,131.678308 L14.2198325,139.202769 C14.2282944,139.906 14.8005289,140.478923 15.4922874,140.478923 C16.1829881,140.478923 16.7467607,139.914615 16.761569,139.215692 L16.761569,132.395538 L17.4681357,132.395538 C17.4702512,132.397692 17.4723667,132.400923 17.4723667,132.400923 L17.4723667,148.39 C17.4723667,149.278462 18.1831644,150 19.0547378,150 C19.9263112,150 20.6328779,149.278462 20.6328779,148.39 L20.6328779,140.089077 L21.5753195,140.089077 L21.5753195,148.39 C21.5753195,149.278462 22.2818863,150 23.1555751,150 C24.0271485,150 24.7337153,149.278462 24.7337153,148.39 L24.7337153,132.402 L24.7379462,132.395538 L25.4550903,132.395538 C25.4582636,132.400923 25.4550903,132.409538 25.4550903,132.420308 L25.4550903,139.287846 L25.4561481,139.287846 C25.4709564,139.988923 26.034729,140.554308 26.7254297,140.554308 C27.4235346,140.554308 27.9936536,139.979231 28,139.255538 L27.9746144,131.693385 C27.9746144,129.831385 26.242045,128.260154 24.6490965,128.260154 M8.22459233,136.008615 C9.17549581,136.008615 9.94764213,135.222462 9.94764213,134.254308 C9.94764213,133.289385 9.17549581,132.497846 8.22459233,132.497846 C7.27474658,132.497846 6.50260026,133.289385 6.50260026,134.254308 C6.50260026,135.222462 7.27474658,136.008615 8.22459233,136.008615 M10.5177611,136.412462 L6.08479506,136.412462 C5.09158219,136.412462 4.00634641,137.392462 4.00846188,138.549077 L4,143.250923 C4.00634641,143.689231 4.36174526,144.05 4.79330101,144.05 C5.2259145,144.05 5.57814015,143.696769 5.59083297,143.256308 L5.59083297,138.993846 L6.03085059,138.993846 C6.03296606,138.999231 6.03296606,139.001385 6.03296606,139.001385 C6.03508153,139.083231 6.03508153,148.894 6.03508153,148.993077 C6.03508153,149.547692 6.47509916,150 7.02300573,150 C7.56562362,150 8.00775672,149.547692 8.00775672,148.993077 L8.00775672,143.806615 L8.59903041,143.806615 L8.59903041,148.993077 C8.59903041,149.547692 9.04116351,150 9.58483914,150 C10.1295725,150 10.5738211,149.547692 10.5738211,148.993077 L10.5738211,138.999231 L11.0201851,138.993846 C11.0223006,139.001385 11.0201851,139.007846 11.0201851,139.007846 L11.0201851,143.304769 C11.0328779,143.740923 11.3861613,144.096308 11.8177171,144.096308 C12.2535037,144.096308 12.6089026,143.736615 12.6131335,143.282154 L12.5962098,138.556615 C12.5962098,137.392462 11.5120317,136.412462 10.5177611,136.412462" id="family--white" fill="#206FAC" sketch:type="MSShapeGroup"></path>
        <path d="M20.9819304,87.6161538 C22.5008374,87.6161538 23.7362715,86.3572308 23.7362715,84.8086154 C23.7362715,83.2610769 22.5008374,82 20.9819304,82 C19.4577347,82 18.2223006,83.2610769 18.2223006,84.8086154 C18.2223006,86.3572308 19.4577347,87.6161538 20.9819304,87.6161538 M24.6490965,88.2601538 L17.5591009,88.2601538 C15.968268,88.2601538 14.2325253,89.8313846 14.2325253,91.6783077 L14.2198325,99.2027692 C14.2282944,99.906 14.8005289,100.478923 15.4922874,100.478923 C16.1829881,100.478923 16.7467607,99.9146154 16.761569,99.2156923 L16.761569,92.3955385 L17.4681357,92.3955385 C17.4702512,92.3976923 17.4723667,92.4009231 17.4723667,92.4009231 L17.4723667,108.39 C17.4723667,109.278462 18.1831644,110 19.0547378,110 C19.9263112,110 20.6328779,109.278462 20.6328779,108.39 L20.6328779,100.089077 L21.5753195,100.089077 L21.5753195,108.39 C21.5753195,109.278462 22.2818863,110 23.1555751,110 C24.0271485,110 24.7337153,109.278462 24.7337153,108.39 L24.7337153,92.402 L24.7379462,92.3955385 L25.4550903,92.3955385 C25.4582636,92.4009231 25.4550903,92.4095385 25.4550903,92.4203077 L25.4550903,99.2878462 L25.4561481,99.2878462 C25.4709564,99.9889231 26.034729,100.554308 26.7254297,100.554308 C27.4235346,100.554308 27.9936536,99.9792308 28,99.2555385 L27.9746144,91.6933846 C27.9746144,89.8313846 26.242045,88.2601538 24.6490965,88.2601538 M8.22459233,96.0086154 C9.17549581,96.0086154 9.94764213,95.2224615 9.94764213,94.2543077 C9.94764213,93.2893846 9.17549581,92.4978462 8.22459233,92.4978462 C7.27474658,92.4978462 6.50260026,93.2893846 6.50260026,94.2543077 C6.50260026,95.2224615 7.27474658,96.0086154 8.22459233,96.0086154 M10.5177611,96.4124615 L6.08479506,96.4124615 C5.09158219,96.4124615 4.00634641,97.3924615 4.00846188,98.5490769 L4,103.250923 C4.00634641,103.689231 4.36174526,104.05 4.79330101,104.05 C5.2259145,104.05 5.57814015,103.696769 5.59083297,103.256308 L5.59083297,98.9938462 L6.03085059,98.9938462 C6.03296606,98.9992308 6.03296606,99.0013846 6.03296606,99.0013846 C6.03508153,99.0832308 6.03508153,108.894 6.03508153,108.993077 C6.03508153,109.547692 6.47509916,110 7.02300573,110 C7.56562362,110 8.00775672,109.547692 8.00775672,108.993077 L8.00775672,103.806615 L8.59903041,103.806615 L8.59903041,108.993077 C8.59903041,109.547692 9.04116351,110 9.58483914,110 C10.1295725,110 10.5738211,109.547692 10.5738211,108.993077 L10.5738211,98.9992308 L11.0201851,98.9938462 C11.0223006,99.0013846 11.0201851,99.0078462 11.0201851,99.0078462 L11.0201851,103.304769 C11.0328779,103.740923 11.3861613,104.096308 11.8177171,104.096308 C12.2535037,104.096308 12.6089026,103.736615 12.6131335,103.282154 L12.5962098,98.5566154 C12.5962098,97.3924615 11.5120317,96.4124615 10.5177611,96.4124615" id="family--white" fill="#FFFFFF" sketch:type="MSShapeGroup"></path>
        <path d="M20.9819304,47.6161538 C22.5008374,47.6161538 23.7362715,46.3572308 23.7362715,44.8086154 C23.7362715,43.2610769 22.5008374,42 20.9819304,42 C19.4577347,42 18.2223006,43.2610769 18.2223006,44.8086154 C18.2223006,46.3572308 19.4577347,47.6161538 20.9819304,47.6161538 M24.6490965,48.2601538 L17.5591009,48.2601538 C15.968268,48.2601538 14.2325253,49.8313846 14.2325253,51.6783077 L14.2198325,59.2027692 C14.2282944,59.906 14.8005289,60.4789231 15.4922874,60.4789231 C16.1829881,60.4789231 16.7467607,59.9146154 16.761569,59.2156923 L16.761569,52.3955385 L17.4681357,52.3955385 C17.4702512,52.3976923 17.4723667,52.4009231 17.4723667,52.4009231 L17.4723667,68.39 C17.4723667,69.2784615 18.1831644,70 19.0547378,70 C19.9263112,70 20.6328779,69.2784615 20.6328779,68.39 L20.6328779,60.0890769 L21.5753195,60.0890769 L21.5753195,68.39 C21.5753195,69.2784615 22.2818863,70 23.1555751,70 C24.0271485,70 24.7337153,69.2784615 24.7337153,68.39 L24.7337153,52.402 L24.7379462,52.3955385 L25.4550903,52.3955385 C25.4582636,52.4009231 25.4550903,52.4095385 25.4550903,52.4203077 L25.4550903,59.2878462 L25.4561481,59.2878462 C25.4709564,59.9889231 26.034729,60.5543077 26.7254297,60.5543077 C27.4235346,60.5543077 27.9936536,59.9792308 28,59.2555385 L27.9746144,51.6933846 C27.9746144,49.8313846 26.242045,48.2601538 24.6490965,48.2601538 M8.22459233,56.0086154 C9.17549581,56.0086154 9.94764213,55.2224615 9.94764213,54.2543077 C9.94764213,53.2893846 9.17549581,52.4978462 8.22459233,52.4978462 C7.27474658,52.4978462 6.50260026,53.2893846 6.50260026,54.2543077 C6.50260026,55.2224615 7.27474658,56.0086154 8.22459233,56.0086154 M10.5177611,56.4124615 L6.08479506,56.4124615 C5.09158219,56.4124615 4.00634641,57.3924615 4.00846188,58.5490769 L4,63.2509231 C4.00634641,63.6892308 4.36174526,64.05 4.79330101,64.05 C5.2259145,64.05 5.57814015,63.6967692 5.59083297,63.2563077 L5.59083297,58.9938462 L6.03085059,58.9938462 C6.03296606,58.9992308 6.03296606,59.0013846 6.03296606,59.0013846 C6.03508153,59.0832308 6.03508153,68.894 6.03508153,68.9930769 C6.03508153,69.5476923 6.47509916,70 7.02300573,70 C7.56562362,70 8.00775672,69.5476923 8.00775672,68.9930769 L8.00775672,63.8066154 L8.59903041,63.8066154 L8.59903041,68.9930769 C8.59903041,69.5476923 9.04116351,70 9.58483914,70 C10.1295725,70 10.5738211,69.5476923 10.5738211,68.9930769 L10.5738211,58.9992308 L11.0201851,58.9938462 C11.0223006,59.0013846 11.0201851,59.0078462 11.0201851,59.0078462 L11.0201851,63.3047692 C11.0328779,63.7409231 11.3861613,64.0963077 11.8177171,64.0963077 C12.2535037,64.0963077 12.6089026,63.7366154 12.6131335,63.2821538 L12.5962098,58.5566154 C12.5962098,57.3924615 11.5120317,56.4124615 10.5177611,56.4124615" id="family--light-grey" fill="#67737B" sketch:type="MSShapeGroup"></path>
        <path d="M20.9819304,7.61615385 C22.5008374,7.61615385 23.7362715,6.35723077 23.7362715,4.80861538 C23.7362715,3.26107692 22.5008374,2 20.9819304,2 C19.4577347,2 18.2223006,3.26107692 18.2223006,4.80861538 C18.2223006,6.35723077 19.4577347,7.61615385 20.9819304,7.61615385 M24.6490965,8.26015385 L17.5591009,8.26015385 C15.968268,8.26015385 14.2325253,9.83138462 14.2325253,11.6783077 L14.2198325,19.2027692 C14.2282944,19.906 14.8005289,20.4789231 15.4922874,20.4789231 C16.1829881,20.4789231 16.7467607,19.9146154 16.761569,19.2156923 L16.761569,12.3955385 L17.4681357,12.3955385 C17.4702512,12.3976923 17.4723667,12.4009231 17.4723667,12.4009231 L17.4723667,28.39 C17.4723667,29.2784615 18.1831644,30 19.0547378,30 C19.9263112,30 20.6328779,29.2784615 20.6328779,28.39 L20.6328779,20.0890769 L21.5753195,20.0890769 L21.5753195,28.39 C21.5753195,29.2784615 22.2818863,30 23.1555751,30 C24.0271485,30 24.7337153,29.2784615 24.7337153,28.39 L24.7337153,12.402 L24.7379462,12.3955385 L25.4550903,12.3955385 C25.4582636,12.4009231 25.4550903,12.4095385 25.4550903,12.4203077 L25.4550903,19.2878462 L25.4561481,19.2878462 C25.4709564,19.9889231 26.034729,20.5543077 26.7254297,20.5543077 C27.4235346,20.5543077 27.9936536,19.9792308 28,19.2555385 L27.9746144,11.6933846 C27.9746144,9.83138462 26.242045,8.26015385 24.6490965,8.26015385 M8.22459233,16.0086154 C9.17549581,16.0086154 9.94764213,15.2224615 9.94764213,14.2543077 C9.94764213,13.2893846 9.17549581,12.4978462 8.22459233,12.4978462 C7.27474658,12.4978462 6.50260026,13.2893846 6.50260026,14.2543077 C6.50260026,15.2224615 7.27474658,16.0086154 8.22459233,16.0086154 M10.5177611,16.4124615 L6.08479506,16.4124615 C5.09158219,16.4124615 4.00634641,17.3924615 4.00846188,18.5490769 L4,23.2509231 C4.00634641,23.6892308 4.36174526,24.05 4.79330101,24.05 C5.2259145,24.05 5.57814015,23.6967692 5.59083297,23.2563077 L5.59083297,18.9938462 L6.03085059,18.9938462 C6.03296606,18.9992308 6.03296606,19.0013846 6.03296606,19.0013846 C6.03508153,19.0832308 6.03508153,28.894 6.03508153,28.9930769 C6.03508153,29.5476923 6.47509916,30 7.02300573,30 C7.56562362,30 8.00775672,29.5476923 8.00775672,28.9930769 L8.00775672,23.8066154 L8.59903041,23.8066154 L8.59903041,28.9930769 C8.59903041,29.5476923 9.04116351,30 9.58483914,30 C10.1295725,30 10.5738211,29.5476923 10.5738211,28.9930769 L10.5738211,18.9992308 L11.0201851,18.9938462 C11.0223006,19.0013846 11.0201851,19.0078462 11.0201851,19.0078462 L11.0201851,23.3047692 C11.0328779,23.7409231 11.3861613,24.0963077 11.8177171,24.0963077 C12.2535037,24.0963077 12.6089026,23.7366154 12.6131335,23.2821538 L12.5962098,18.5566154 C12.5962098,17.3924615 11.5120317,16.4124615 10.5177611,16.4124615" id="family--dark-grey" fill="#3A434E" sketch:type="MSShapeGroup"></path>
    </g>
</svg>

<svg width="32" height="232" viewBox="0 0 32 232" xmlns="http://www.w3.org/2000/svg" xmlns:sketch="http://www.bohemiancoding.com/sketch/ns"><title>family</title><g sketch:type="MSPage" fill="none"><path d="M20.982 127.616c1.519 0 2.754-1.259 2.754-2.808 0-1.548-1.235-2.809-2.754-2.809-1.524 0-2.76 1.261-2.76 2.809 0 1.549 1.235 2.808 2.76 2.808m3.667.644h-7.09c-1.591 0-3.327 1.571-3.327 3.418l-.013 7.524c.008.703.581 1.276 1.272 1.276.691 0 1.254-.564 1.269-1.263v-6.82h.707l.004.005v15.989c0 .888.711 1.61 1.582 1.61.872 0 1.578-.722 1.578-1.61v-8.301h.942v8.301c0 .888.707 1.61 1.58 1.61.872 0 1.578-.722 1.578-1.61v-15.988l.004-.006h.717v6.893000000000001h.001c.015.701.579 1.266 1.269 1.266.698 0 1.268-.575 1.275-1.299l-.025-7.562c0-1.862-1.733-3.433-3.326-3.433m-16.425 7.748c.951 0 1.723-.786 1.723-1.754 0-.965-.772-1.756-1.723-1.756-.95 0-1.722.792-1.722 1.756 0 .968.772 1.754 1.722 1.754m2.293.404h-4.433c-.993 0-2.078.98-2.076 2.137l-.008 4.702c.006.438.362.799.793.799.433 0 .785-.353.798-.794v-4.262h.44l.002.008c.002.082.002 9.893.002 9.992 0 .555.44 1.007.988 1.007.543 0 .985-.452.985-1.007v-5.186h.591v5.186c0 .555.442 1.007.986 1.007.545 0 .989-.452.989-1.007v-9.994l.446-.005v4.311c.013.436.366.792.798.792.436 0 .791-.36.795-.814l-.017-4.726c0-1.164-1.084-2.144-2.078-2.144" id="family--white" fill="#206FAC" sketch:type="MSShapeGroup"/><path d="M20.982 87.616c1.519 0 2.754-1.259 2.754-2.808 0-1.548-1.235-2.809-2.754-2.809-1.524 0-2.76 1.261-2.76 2.809 0 1.549 1.235 2.808 2.76 2.808m3.667.644h-7.09c-1.591 0-3.327 1.571-3.327 3.418l-.013 7.524c.008.703.581 1.276 1.272 1.276.691 0 1.254-.564 1.269-1.263v-6.82h.707l.004.005v15.989c0 .888.711 1.61 1.582 1.61.872 0 1.578-.722 1.578-1.61v-8.301h.942v8.301c0 .888.707 1.61 1.58 1.61.872 0 1.578-.722 1.578-1.61v-15.988l.004-.006h.717v6.893000000000001h.001c.015.701.579 1.266 1.269 1.266.698 0 1.268-.575 1.275-1.299l-.025-7.562c0-1.862-1.733-3.433-3.326-3.433m-16.425 7.748c.951 0 1.723-.786 1.723-1.754 0-.965-.772-1.756-1.723-1.756-.95 0-1.722.792-1.722 1.756 0 .968.772 1.754 1.722 1.754m2.293.404h-4.433c-.993 0-2.078.98-2.076 2.137l-.008 4.702c.006.438.362.799.793.799.433 0 .785-.353.798-.794v-4.262h.44l.002.008c.002.082.002 9.893.002 9.992 0 .555.44 1.007.988 1.007.543 0 .985-.452.985-1.007v-5.186h.591v5.186c0 .555.442 1.007.986 1.007.545 0 .989-.452.989-1.007v-9.994l.446-.005v4.311c.013.436.366.792.798.792.436 0 .791-.36.795-.814l-.017-4.726c0-1.164-1.084-2.144-2.078-2.144" fill="#fff" sketch:type="MSShapeGroup"/><path d="M20.982 47.616c1.519 0 2.754-1.259 2.754-2.808 0-1.548-1.235-2.809-2.754-2.809-1.524 0-2.76 1.261-2.76 2.809 0 1.549 1.235 2.808 2.76 2.808m3.667.644h-7.09c-1.591 0-3.327 1.571-3.327 3.418l-.013 7.524c.008.703.581 1.276 1.272 1.276.691 0 1.254-.564 1.269-1.263v-6.82h.707l.004.005v15.989c0 .888.711 1.61 1.582 1.61.872 0 1.578-.722 1.578-1.61v-8.301h.942v8.301c0 .888.707 1.61 1.58 1.61.872 0 1.578-.722 1.578-1.61v-15.988l.004-.006h.717v6.893000000000001h.001c.015.701.579 1.266 1.269 1.266.698 0 1.268-.575 1.275-1.299l-.025-7.562c0-1.862-1.733-3.433-3.326-3.433m-16.425 7.748c.951 0 1.723-.786 1.723-1.754 0-.965-.772-1.756-1.723-1.756-.95 0-1.722.792-1.722 1.756 0 .968.772 1.754 1.722 1.754m2.293.404h-4.433c-.993 0-2.078.98-2.076 2.137l-.008 4.702c.006.438.362.799.793.799.433 0 .785-.353.798-.794v-4.262h.44l.002.008c.002.082.002 9.893.002 9.992 0 .555.44 1.007.988 1.007.543 0 .985-.452.985-1.007v-5.186h.591v5.186c0 .555.442 1.007.986 1.007.545 0 .989-.452.989-1.007v-9.994l.446-.005v4.311c.013.436.366.792.798.792.436 0 .791-.36.795-.814l-.017-4.726c0-1.164-1.084-2.144-2.078-2.144" fill="#67737B" sketch:type="MSShapeGroup"/><path d="M20.982 7.616c1.519 0 2.754-1.259 2.754-2.808 0-1.548-1.235-2.809-2.754-2.809-1.524 0-2.76 1.261-2.76 2.809 0 1.549 1.235 2.808 2.76 2.808m3.667.644h-7.09c-1.591 0-3.327 1.571-3.327 3.418l-.013 7.524c.008.703.581 1.276 1.272 1.276.691 0 1.254-.564 1.269-1.263v-6.82h.707l.004.005v15.989c0 .888.711 1.61 1.582 1.61.872 0 1.578-.722 1.578-1.61v-8.301h.942v8.301c0 .888.707 1.61 1.58 1.61.872 0 1.578-.722 1.578-1.61v-15.988l.004-.006h.717v6.893000000000001h.001c.015.701.579 1.266 1.269 1.266.698 0 1.268-.575 1.275-1.299l-.025-7.562c0-1.862-1.733-3.433-3.326-3.433m-16.425 7.748c.951 0 1.723-.786 1.723-1.754 0-.965-.772-1.756-1.723-1.756-.95 0-1.722.792-1.722 1.756 0 .968.772 1.754 1.722 1.754m2.293.404h-4.433c-.993 0-2.078.98-2.076 2.137l-.008 4.702c.006.438.362.799.793.799.433 0 .785-.353.798-.794v-4.262h.44l.002.008c.002.082.002 9.893.002 9.992 0 .555.44 1.007.988 1.007.543 0 .985-.452.985-1.007v-5.186h.591v5.186c0 .555.442 1.007.986 1.007.545 0 .989-.452.989-1.007v-9.994l.446-.005v4.311c.013.436.366.792.798.792.436 0 .791-.36.795-.814l-.017-4.726c0-1.164-1.084-2.144-2.078-2.144" fill="#3A434E" sketch:type="MSShapeGroup"/></g></svg>
